X: 67
T: No_70_The_Platte_River.krn
N: Derived from No_70_The_Platte_River.krn
%%abc-version 2.0
%%abcx-abcm2ps-target-version 5.9.1 (29 Sep 2008)
%%abc-creator hum2abc beta
%%abcx-conversion-date 2019/03/15 08:27:55
%%humdrum-veritas 2472214972
%%humdrum-veritas-data 2019355337
%%linebreak <none>
%%barnumbers 0
L: 1/8
M: 2/4
K: F clef=bass
[K:clef=bass][M:2/4]z3/ (C/ C3/)C/ [I:setbarnb 2]| 
F2F3/F/ | 
A,2CC | 
F2C3//C//C | 
C3//C//C A,/A,/G, | 
CA, C3/A,/ | 
F,3/F,/F,2- | 
F,3z | 
G,G, A,A,/G,/ | 
F,F, F,G, | 
G,/F,3/ C,3/C,/ | 
C,4 :|]  



